assets/icons/showers-filled.svg

<?xml version="1.0" encoding="UTF-8" standalone="no"?>
<svg
   viewBox="0 0 24 24"
   height="24"
   id="svg7384"
   version="1.1"
   width="24"
   sodipodi:docname="showers-filled.svg"
   inkscape:version="1.2 (1:1.2.1+202207142221+cd75a1ee6d)"
   xmlns:inkscape="http://www.inkscape.org/namespaces/inkscape"
   xmlns:sodipodi="http://sodipodi.sourceforge.net/DTD/sodipodi-0.dtd"
   xmlns="http://www.w3.org/2000/svg"
   xmlns:svg="http://www.w3.org/2000/svg"
   xmlns:rdf="http://www.w3.org/1999/02/22-rdf-syntax-ns#"
   xmlns:cc="http://creativecommons.org/ns#"
   xmlns:dc="http://purl.org/dc/elements/1.1/">
  <sodipodi:namedview
     id="namedview21"
     pagecolor="#ffffff"
     bordercolor="#666666"
     borderopacity="1.0"
     inkscape:pageshadow="2"
     inkscape:pageopacity="0.0"
     inkscape:pagecheckerboard="0"
     showgrid="true"
     width="24px"
     inkscape:zoom="39.597899"
     inkscape:cx="15.35435"
     inkscape:cy="10.934924"
     inkscape:window-width="1920"
     inkscape:window-height="1043"
     inkscape:window-x="0"
     inkscape:window-y="0"
     inkscape:window-maximized="1"
     inkscape:current-layer="svg7384"
     inkscape:showpageshadow="2"
     inkscape:deskcolor="#d1d1d1">
    <inkscape:grid
       type="xygrid"
       id="grid118" />
    <inkscape:grid
       type="xygrid"
       id="grid526"
       dotted="true"
       spacingx="0.5"
       spacingy="0.5"
       empspacing="10" />
  </sodipodi:namedview>
  <metadata
     id="metadata20854">
    <rdf:RDF>
      <cc:Work
         rdf:about="">
        <dc:format>image/svg+xml</dc:format>
        <dc:type
           rdf:resource="http://purl.org/dc/dcmitype/StillImage" />
      </cc:Work>
    </rdf:RDF>
  </metadata>
  <defs
     id="defs7386">
    <linearGradient
       id="linearGradient5606"
       inkscape:swatch="solid">
      <stop
         id="stop5608"
         offset="0"
         style="stop-color:#000000;stop-opacity:1;" />
    </linearGradient>
    <linearGradient
       id="linearGradient4526"
       inkscape:swatch="solid">
      <stop
         id="stop4528"
         offset="0"
         style="stop-color:#ffffff;stop-opacity:1;" />
    </linearGradient>
    <linearGradient
       id="linearGradient3600-4"
       inkscape:swatch="gradient">
      <stop
         id="stop3602-7"
         offset="0"
         style="stop-color:#f4f4f4;stop-opacity:1" />
      <stop
         id="stop3604-6"
         offset="1"
         style="stop-color:#dbdbdb;stop-opacity:1" />
    </linearGradient>
  </defs>
  <path
     id="path463"
     style="opacity:1;fill:#808080;stroke:none;stroke-width:3;stroke-linejoin:round;stroke-dasharray:3, 3"
     d="m 10,2 v 3 h 1 v -3 z m -3.3164062,0.8886719 -0.8671876,0.5 1.5,2.5976562 0.8671876,-0.5 z m 7.6328122,0 -1.5,2.5976562 0.867188,0.5 1.5,-2.5976562 z m -10.9277341,2.9277343 -0.5,0.8671876 2.5976562,1.5 0.5,-0.8671876 z m 14.2226561,0 -2.597656,1.5 0.416016,0.7226563 c 0.12835,-0.015553 0.257554,-0.026079 0.388671,-0.03125 l 2.292969,-1.3242187 z m -15.611328,4.1835938 v 1 h 3 v -1 z m 3.4863281,2.816406 -2.5976562,1.5 0.5,0.867188 2.5976562,-1.5 z m 1.8300781,2.197266 -1.5,2.597656 0.8671876,0.5 1.3828124,-2.394531 c -0.017832,-0.09712 -0.032372,-0.195563 -0.042969,-0.294922 z"
     sodipodi:nodetypes="cccccccccccccccccccccccccccccccccccccccccc" />
  <path
     id="path508"
     style="fill:#808080;fill-opacity:1;fill-rule:evenodd;stroke-width:0.5;stroke-linecap:square;stroke-linejoin:round"
     d="M 16 9 C 14.177774 9.004 12.588538 10.23908 12.134766 12.003906 C 12.089876 12.001606 12.044946 12.0003 12 12 C 10.343154 12 9 13.343154 9 15 C 9 16.656846 10.343154 18 12 18 L 12.896484 18 C 13.018065 17.732596 13.105469 17.552734 13.105469 17.552734 L 13.382812 17 L 14 15.763672 L 14.617188 17 L 14.894531 17.552734 C 14.894531 17.552734 14.978885 17.722936 15.095703 17.978516 C 15.098724 17.985125 15.1024 17.993266 15.105469 18 L 15.896484 18 C 16.018065 17.732596 16.105469 17.552734 16.105469 17.552734 L 16.382812 17 L 17 15.763672 L 17.617188 17 L 17.894531 17.552734 C 17.894531 17.552734 17.978885 17.722936 18.095703 17.978516 C 18.098724 17.985125 18.1024 17.993266 18.105469 18 L 19.5 18 C 20.880708 18 22 16.880708 22 15.5 C 21.999494 14.310927 21.161521 13.286739 19.996094 13.050781 C 19.997494 13.033861 19.9988 13.01693 20 13 C 20 10.790869 18.209131 9 16 9 z " />
  <path
     id="path822"
     style="fill:#808080;fill-opacity:1;fill-rule:evenodd;stroke:none"
     d="M 14 18 C 14 18 13 20.000001 13 21 C 13 21.552284 13.447716 22 14 22 C 14.552284 22 15 21.552284 15 21 C 14.999747 20.98371 14.999143 20.967432 14.998047 20.951172 C 14.967157 19.936483 14 18 14 18 z M 17 18 C 17 18 16 20.000001 16 21 C 16 21.552284 16.447716 22 17 22 C 17.552284 22 18 21.552284 18 21 C 17.999747 20.98371 17.999143 20.967432 17.998047 20.951172 C 17.967157 19.936483 17 18 17 18 z " />
  <path
     id="path353"
     style="fill:#808080;fill-rule:evenodd;stroke:none;stroke-width:2;stroke-linecap:round;stroke-linejoin:round"
     d="M 10.5 6 A 4.5 4.5 0 0 0 6 10.5 A 4.5 4.5 0 0 0 8.0664062 14.285156 C 8.3786329 12.624099 9.7587024 11.356683 11.453125 11.111328 C 12.009107 9.7790526 13.085205 8.7462791 14.410156 8.2773438 A 4.5 4.5 0 0 0 10.5 6 z " />
</svg>

<svg height="24" width="24" xmlns="http://www.w3.org/2000/svg"><path style="opacity:1;fill:gray;stroke:none;stroke-width:3;stroke-linejoin:round;stroke-dasharray:3,3" d="M10 2v3h1V2zm-3.316.889-.868.5 1.5 2.597.868-.5zm7.632 0-1.5 2.597.868.5 1.5-2.597zM3.39 5.816l-.5.868 2.597 1.5.5-.868zm14.222 0-2.597 1.5.416.723a4.95 4.95 0 0 1 .388-.031l2.293-1.324zM2 10v1h3v-1zm3.486 2.816-2.597 1.5.5.868 2.597-1.5zm1.83 2.198-1.5 2.597.868.5 1.382-2.394a3.959 3.959 0 0 1-.043-.295z"/><path style="fill:gray;fill-opacity:1;stroke-width:.5;stroke-linecap:square;stroke-linejoin:round" d="M16 9a4 4 0 0 0-3.865 3.004A3 3 0 1 0 12 18h.896c.122-.267.21-.447.21-.447l.277-.553.617-1.236.617 1.236.278.553s.084.17.2.426c.004.006.007.014.01.021h.791c.122-.267.21-.447.21-.447l.277-.553.617-1.236.617 1.236.278.553s.084.17.2.426c.004.006.007.014.01.021H19.5a2.5 2.5 0 0 0 .496-4.95A4.32 4.32 0 0 0 20 13a4 4 0 0 0-4-4z"/><path style="fill:gray;fill-opacity:1;stroke:none" d="M14 18s-1 2-1 3a1 1 0 1 0 1.998-.049C14.968 19.936 14 18 14 18zm3 0s-1 2-1 3a1 1 0 1 0 1.998-.049C17.968 19.936 17 18 17 18z"/><path style="fill:gray;stroke:none;stroke-width:2;stroke-linecap:round;stroke-linejoin:round" d="M10.5 6A4.5 4.5 0 0 0 6 10.5a4.5 4.5 0 0 0 2.066 3.785c.313-1.66 1.693-2.928 3.387-3.174.556-1.332 1.632-2.365 2.957-2.834A4.5 4.5 0 0 0 10.5 6z"/></svg>
